X:1
T: Safe Haven
N:
C:Orly Krasner
S:
A:
O:
R:
M:3/4
K:F
I:speed 150
%W: A1
% voice 1 (1 lines, 21 notes)
K:F
M:3/4
L:1/16
A4 A4 B4 |c6 B2 A4 |G4 A4 B4 |B4 A8 |F4 F4 G4 |A6 G2 F4 |G4 c4 B4 |A12 |
%W: A2
% voice 1 (1 lines, 21 notes)
A4 A4 B4 |c6 B2 A4 |G4 A4 B4 |B4 A8 |F4 F4 G4 |A6 B2 A4 |G4 F4 G4 |F12 |
%W: B1
% voice 1 (1 lines, 21 notes)
A4 A4 c4 |f6 c2 A4 |F4 G4 A4 |B4 A8 |D4 D4 E4 |F6 G2 A4 |B4 d4 c4 |A12 |
%W: B2
% voice 1 (1 lines, 21 notes)
A4 A4 c4 |f6 c2 A4 |F4 G4 A4 |B4 A8 |F4 A4 c4 |f6 g2 a4 |g4 c4 c4 |f12 ||
